src/assets/svg/icons/fa/nuevos/classic/duotone/grip-lines classic duotone.svg

<svg xmlns="http://www.w3.org/2000/svg" viewBox="0 0 448 512"><!--! Font Awesome Pro 6.4.0 by @fontawesome - https://fontawesome.com License - https://fontawesome.com/license (Commercial License) Copyright 2023 Fonticons, Inc. --><defs><style>.fa-secondary{opacity:.4}</style></defs><path class="fa-primary" d="M416 160c17.7 0 32 14.3 32 32s-14.3 32-32 32L32 224c-17.7 0-32-14.3-32-32s14.3-32 32-32l384 0z"/><path class="fa-secondary" d="M416 288c17.7 0 32 14.3 32 32s-14.3 32-32 32L32 352c-17.7 0-32-14.3-32-32s14.3-32 32-32l384 0z"/></svg>

<svg xmlns="http://www.w3.org/2000/svg" viewBox="0 0 448 512"><defs><style>.fa-secondary{opacity:.4}</style></defs><path class="fa-primary" d="M416 160C433.7 160 448 174.3 448 192C448 209.7 433.7 224 416 224H32C14.33 224 0 209.7 0 192C0 174.3 14.33 160 32 160H416z"/><path class="fa-secondary" d="M416 288C433.7 288 448 302.3 448 320C448 337.7 433.7 352 416 352H32C14.33 352 0 337.7 0 320C0 302.3 14.33 288 32 288H416z"/></svg>
